X: 2
P: Norwegian Wood
C: Beatles
R: jig
N: This is NOT the original version of the tune!!!
M: 6/8
L: 1/8
K: Gmix
"A"|: "G"d2d edc | B3 AcB | G3 "F"Fc"C"E | "G"HD6 \
"B"::[K:Gm] "Gm"[dB][dB][dB] [dB][cA][cA] | [cA][BG][BG] [BG][cA][BG] \
    |1 "C"[c3-=E3] [c3-F3] | [c3-^F3] [c3G3] \
   :|2"Am"[c3-A3]  [c3-G3] | "D7"[c6^F6] |]
